X:1
T:Title
%%score { ( 1 3 ) | ( 2 4 ) }
L:1/8
M:3/4
K:F
V:1 treble nm="Grand Piano"
V:3 treble 
V:2 bass 
V:4 bass 
V:1
 z2 z[Q:1/4=85] C FG | A4 z2 | [A,CF]2 [G,CE][CEG] [^CEA][A,CE] | [A,DF][=B,FG] [CEA]2 [_B,EG]2 | %4
[M:3/8] [A,F]3 | z FG |[M:3/4] A4 z2 | [A,CF]2 [G,CE][CEG] [^CEA][A,CE] | %8
 [A,DF][=B,FG] [CEA]2 [_B,EG]2 |[M:2/4] [A,F]4 |[M:1/4] C2 |[M:3/4] [GB]>[GB] [GB][^FA] [Ac][GB] | %12
 [GB]2 A2 F2 | d>d dc ed |[M:2/4] d2 c2 |[M:1/4] cB |[M:3/4] A4 z2 | F4 z2 | %18
 [CFA][A,C] [CEA]2 [B,EG]2 |[M:3/8] [A,F]3 |] %20
V:2
 z2 z2 A,[C,E,C] | C2 z2 z2 | C,2 C,C, A,,A,, | D,^C, =C,2 C,2 |[M:3/8] F,3 | CA,[C,E,C] | %6
[M:3/4] C2 z2 z2 | C,2 C,C, A,,A,, | D,^C, =C,2 C,2 |[M:2/4] F,4 |[M:1/4] C,2 | %11
[M:3/4] [C,C]>[C,C] [C,C][C,C] [C,C][C,C] | [F,C]2 [F,CF]2 [F,A,]2 | %13
 [B,F]>[B,F] [B,F][B,E] [B,G][B,F] |[M:2/4] [F,B,F]2 [F,A,F]2 |[M:1/4] AG | %16
[M:3/4][K:bass] [F,F]F, [A,,E,]2 ^CE | D,G,, B,,2 B,,B,, | C,C, C,2 C,2 |[M:3/8] F,3 |] %20
V:3
 x6 | z A, [CF][_EFc] [DGB][B,DG] | x6 | x6 |[M:3/8] x3 | x3 |[M:3/4] z A, Fc [DGB][B,DG] | x6 | %8
 x6 |[M:2/4] x4 |[M:1/4] x2 |[M:3/4] x6 | x6 | x6 |[M:2/4] x4 |[M:1/4] x2 |[M:3/4] z C ^C2 AG | %17
 [A,D][C_E] [B,D]2 [DF][^CFG] | x6 |[M:3/8] x3 |] %20
V:4
 x6 | F,F, F,F, B,,B,, | x6 | x6 |[M:3/8] x3 | x3 |[M:3/4] F,F, [F,C][F,_EF] B,,B,, | x6 | x6 | %9
[M:2/4] x4 |[M:1/4] x2 |[M:3/4] x6 | x6 | x6 |[M:2/4] x4 |[M:1/4] x2 |[M:3/4][K:bass] x6 | x6 | %18
 x6 |[M:3/8] x3 |] %20

